src/assets/svg/inventory-2.svg

<svg width="30" height="39" viewBox="0 0 30 39" fill="none" xmlns="http://www.w3.org/2000/svg">
<path d="M26.25 6.25H26.0375V8.75H26.25C26.5815 8.75 26.8995 8.8817 27.1339 9.11612C27.3683 9.35054 27.5 9.66848 27.5 10V35C27.5 35.3315 27.3683 35.6495 27.1339 35.8839C26.8995 36.1183 26.5815 36.25 26.25 36.25H3.75C3.41848 36.25 3.10054 36.1183 2.86612 35.8839C2.6317 35.6495 2.5 35.3315 2.5 35V10C2.5 9.66848 2.6317 9.35054 2.86612 9.11612C3.10054 8.8817 3.41848 8.75 3.75 8.75H3.9625V6.25H3.75C2.75544 6.25 1.80161 6.64509 1.09835 7.34835C0.395088 8.05161 0 9.00544 0 10V35C0 35.9946 0.395088 36.9484 1.09835 37.6517C1.80161 38.3549 2.75544 38.75 3.75 38.75H26.25C27.2446 38.75 28.1984 38.3549 28.9017 37.6517C29.6049 36.9484 30 35.9946 30 35V10C30 9.00544 29.6049 8.05161 28.9017 7.34835C28.1984 6.64509 27.2446 6.25 26.25 6.25Z" fill="#00C700"/>
<path d="M23.75 3.75H20V0H10V3.75H6.25V11.25H23.75V3.75ZM21.25 8.75H8.75V6.25H12.5V2.5H17.5V6.25H21.25V8.75Z" fill="#00C700"/>
<path d="M7.5 16.25H22.5V18.75H7.5V16.25ZM7.5 22.5H22.5V25H7.5V22.5ZM7.5 28.75H22.5V31.25H7.5V28.75Z" fill="#00C700"/>
</svg>

<svg xmlns="http://www.w3.org/2000/svg" width="30" height="39" fill="none"><path fill="#00C700" d="M26.25 6.25h-.212v2.5h.212A1.25 1.25 0 0 1 27.5 10v25a1.25 1.25 0 0 1-1.25 1.25H3.75A1.25 1.25 0 0 1 2.5 35V10a1.25 1.25 0 0 1 1.25-1.25h.212v-2.5H3.75A3.75 3.75 0 0 0 0 10v25a3.75 3.75 0 0 0 3.75 3.75h22.5A3.75 3.75 0 0 0 30 35V10a3.75 3.75 0 0 0-3.75-3.75"/><path fill="#00C700" d="M23.75 3.75H20V0H10v3.75H6.25v7.5h17.5zm-2.5 5H8.75v-2.5h3.75V2.5h5v3.75h3.75zM7.5 16.25h15v2.5h-15zm0 6.25h15V25h-15zm0 6.25h15v2.5h-15z"/></svg>
